static/asset/icon-instagram.svg

<?xml version="1.0" encoding="UTF-8" standalone="no"?>
<svg width="24px" height="24px" viewBox="0 0 24 24" version="1.1" xmlns="http://www.w3.org/2000/svg" xmlns:xlink="http://www.w3.org/1999/xlink">
    <!-- Generator: Sketch 3.8.3 (29802) - http://www.bohemiancoding.com/sketch -->
    <title>icon-instagram</title>
    <desc>Created with Sketch.</desc>
    <defs></defs>
    <g id="Article" stroke="none" stroke-width="1" fill="none" fill-rule="evenodd">
        <g id="Topic-–-Mobile-Portrait" transform="translate(-100.000000, -8272.000000)">
            <g id="Group-2" transform="translate(52.000000, 8272.000000)">
                <g id="icon-instagram" transform="translate(48.000000, 0.000000)">
                    <path d="M12,2.16528571 C15.2031429,2.16528571 15.5825238,2.17747619 16.8474762,2.23519048 C18.0170952,2.28857143 18.6522857,2.484 19.0750476,2.6482381 C19.6349524,2.86585714 20.034619,3.12585714 20.454381,3.54561905 C20.8741429,3.96538095 21.1341429,4.36504762 21.3517143,4.92495238 C21.516,5.34771429 21.7114286,5.98290476 21.7648095,7.15247619 C21.8225238,8.41747619 21.8347143,8.79685714 21.8347143,12 C21.8347143,15.2031429 21.8225238,15.5825238 21.7648095,16.8474762 C21.7114286,18.0170952 21.516,18.6522857 21.3517143,19.0750476 C21.1341429,19.6349524 20.8741429,20.034619 20.454381,20.454381 C20.034619,20.8741429 19.6349524,21.1341429 19.0750476,21.3517143 C18.6522857,21.516 18.0170952,21.7114286 16.8474762,21.7648095 C15.5827143,21.8225238 15.2033333,21.8347143 12,21.8347143 C8.79666667,21.8347143 8.41728571,21.8225238 7.15252381,21.7648095 C5.98290476,21.7114286 5.34771429,21.516 4.925,21.3517143 C4.36504762,21.1341429 3.96538095,20.8741429 3.54561905,20.454381 C3.12585714,20.034619 2.86585714,19.6349524 2.64828571,19.0750476 C2.484,18.6522857 2.28857143,18.0170952 2.23519048,16.8475238 C2.17747619,15.5825238 2.16528571,15.2031429 2.16528571,12 C2.16528571,8.79685714 2.17747619,8.41747619 2.23519048,7.15252381 C2.28857143,5.98290476 2.484,5.34771429 2.64828571,4.92495238 C2.86585714,4.36504762 3.12585714,3.96538095 3.54561905,3.54561905 C3.96538095,3.12585714 4.36504762,2.86585714 4.925,2.6482381 C5.34771429,2.484 5.98290476,2.28857143 7.15247619,2.23519048 C8.41747619,2.17747619 8.79685714,2.16528571 12,2.16528571 M12,0.00376190476 C8.742,0.00376190476 8.33352381,0.0175714286 7.054,0.075952381 C5.77709524,0.134238095 4.90509524,0.337 4.142,0.633571429 C3.35314286,0.940142857 2.68414286,1.35033333 2.0172381,2.0172381 C1.35033333,2.68414286 0.940142857,3.35314286 0.633571429,4.142 C0.337,4.90509524 0.134238095,5.77709524 0.075952381,7.054 C0.0175714286,8.33347619 0.00380952381,8.742 0.00380952381,12 C0.00380952381,15.258 0.0175714286,15.6665238 0.075952381,16.946 C0.134238095,18.2229048 0.337,19.0949048 0.633571429,19.858 C0.940142857,20.6468095 1.35033333,21.3158571 2.0172381,21.9827619 C2.68414286,22.6496667 3.35314286,23.0598571 4.142,23.3664286 C4.90509524,23.663 5.77709524,23.8657619 7.054,23.9240476 C8.33352381,23.9824286 8.742,23.9961905 12,23.9961905 C15.258,23.9961905 15.6665238,23.9824286 16.946,23.9240476 C18.2229048,23.8657619 19.0949048,23.663 19.858,23.3664286 C20.6468571,23.0598571 21.3158571,22.6496667 21.9827619,21.9827619 C22.6496667,21.3158571 23.0598571,20.6468571 23.3664286,19.858 C23.663,19.0949048 23.8657619,18.2229048 23.9240476,16.946 C23.9824286,15.6665238 23.9962381,15.258 23.9962381,12 C23.9962381,8.742 23.9824286,8.33347619 23.9240476,7.054 C23.8657619,5.77709524 23.663,4.90509524 23.3664286,4.142 C23.0598571,3.35314286 22.6496667,2.68414286 21.9827619,2.0172381 C21.3158571,1.35033333 20.6468571,0.940142857 19.858,0.633571429 C19.0949048,0.337 18.2229048,0.134238095 16.946,0.075952381 C15.6665238,0.0175714286 15.258,0.00376190476 12,0.00376190476" id="Fill-1" fill="#BFBFBF"></path>
                    <rect id="Rectangle-81" fill="#BFBFBF" x="2.1" y="2" width="19.8" height="20.4" rx="5"></rect>
                    <path d="M12,5.8397619 C8.59780952,5.8397619 5.8397619,8.59780952 5.8397619,12 C5.8397619,15.4021905 8.59780952,18.1602381 12,18.1602381 C15.4021905,18.1602381 18.1602381,15.4021905 18.1602381,12 C18.1602381,8.59780952 15.4021905,5.8397619 12,5.8397619 L12,5.8397619 Z M12,15.9987619 C9.79157143,15.9987619 8.0012381,14.2084286 8.0012381,12 C8.0012381,9.79157143 9.79157143,8.0012381 12,8.0012381 C14.2084286,8.0012381 15.9987619,9.79157143 15.9987619,12 C15.9987619,14.2084286 14.2084286,15.9987619 12,15.9987619 L12,15.9987619 Z" id="Fill-2" fill="#F3F3F3"></path>
                    <path d="M19.8431429,5.59638095 C19.8431429,6.39142857 19.1986667,7.03595238 18.403619,7.03595238 C17.6085714,7.03595238 16.9640476,6.39142857 16.9640476,5.59638095 C16.9640476,4.80133333 17.6085714,4.15685714 18.403619,4.15685714 C19.1986667,4.15685714 19.8431429,4.80133333 19.8431429,5.59638095" id="Fill-3" fill="#F3F3F3"></path>
                </g>
            </g>
        </g>
    </g>
</svg>

<svg width="24" height="24" xmlns="http://www.w3.org/2000/svg"><g fill="none" fill-rule="evenodd"><path d="M12 2.165c3.203 0 3.583.012 4.847.07 1.17.054 1.805.249 2.228.413.56.218.96.478 1.38.898.42.42.68.819.897 1.379.164.423.36 1.058.413 2.227.058 1.265.07 1.645.07 4.848s-.012 3.583-.07 4.847c-.054 1.17-.249 1.805-.413 2.228-.218.56-.478.96-.898 1.38-.42.42-.819.68-1.379.897-.423.164-1.058.36-2.228.413-1.264.058-1.644.07-4.847.07-3.203 0-3.583-.012-4.847-.07-1.17-.054-1.805-.249-2.228-.413a3.716 3.716 0 0 1-1.38-.898c-.42-.42-.68-.819-.897-1.379-.164-.423-.36-1.058-.413-2.227-.058-1.265-.07-1.645-.07-4.848s.012-3.583.07-4.847c.054-1.17.249-1.805.413-2.228.218-.56.478-.96.898-1.38.42-.42.819-.68 1.379-.897.423-.164 1.058-.36 2.227-.413 1.265-.058 1.645-.07 4.848-.07m0-2.161c-3.258 0-3.666.014-4.946.072-1.277.058-2.149.261-2.912.558a5.88 5.88 0 0 0-2.125 1.383A5.88 5.88 0 0 0 .634 4.142c-.297.763-.5 1.635-.558 2.912C.018 8.334.004 8.742.004 12s.014 3.667.072 4.946c.058 1.277.261 2.149.558 2.912a5.88 5.88 0 0 0 1.383 2.125 5.88 5.88 0 0 0 2.125 1.383c.763.297 1.635.5 2.912.558 1.28.058 1.688.072 4.946.072s3.667-.014 4.946-.072c1.277-.058 2.149-.261 2.912-.558a5.88 5.88 0 0 0 2.125-1.383 5.88 5.88 0 0 0 1.383-2.125c.297-.763.5-1.635.558-2.912.058-1.28.072-1.688.072-4.946s-.014-3.667-.072-4.946c-.058-1.277-.261-2.149-.558-2.912a5.88 5.88 0 0 0-1.383-2.125A5.88 5.88 0 0 0 19.858.634c-.763-.297-1.635-.5-2.912-.558C15.666.018 15.258.004 12 .004" fill="#BFBFBF"/><rect fill="#BFBFBF" x="2.1" y="2" width="19.8" height="20.4" rx="5"/><path d="M12 5.84a6.16 6.16 0 1 0 0 12.32 6.16 6.16 0 0 0 0-12.32zm0 10.159A3.999 3.999 0 1 1 12 8 3.999 3.999 0 0 1 12 16zM19.843 5.596a1.44 1.44 0 1 1-2.879 0 1.44 1.44 0 0 1 2.88 0" fill="#F3F3F3"/></g></svg>
